X: 1
P: In Bb:
M: 23/4
L: 1/8
K: Bb
"A"|: "Bb"[DB,][FD] [FD][EC] | [D2B,2] z2 \
| [DB,][FD] [FD][DB,] [GE][FD] \
| "F7"[F2D2] [EC][DB,] | [C2A,2] z2 \
| "Eb"[GE][GE] [GE][BG] [AF][GE] \
| "Bb"[G2E2] [FD][EC] | [D2B,2]  z2 |
| "F7"[FD][FD] [F2D2] [E2C2] | "Bb"[D2B,2] z2 "fine"z2 :| \
"B"|: "F7"[CA,][EC] [EC][DB,] | [C2A,2] z2 \
| [CA,][EC] [EC][CA,] [FD][EC] \
| "Bb"[DB,][FD] [FD][EC] | [D2B,2] "d.C."z2 :|
P: In Eb:
M: 23/4
L: 1/8
K: Eb
"A"|: "Eb"[GE][BG] [BG][AF] | [G2E2] z2 \
| [GE][BG] [BG][GE] [cA][BG] \
| "Bb7"[B2G2] [AF][GE] | [F2D2] z2 \
| "Ab"[cA][cA] [cA][ec] [dB][cA] \
| "Eb"[c2A2] [BG][AF] | [G2E2]  z2 |
| "Bb7"[BG][BG] [B2G2] [A2F2] | "Eb"[G2E2] z2 "fine"z2 :| \
"B"|: "Bb7"[FD][AF] [AF][GE] | [F2D2] z2 \
| [FD][AF] [AF][FD] [BG][AF] \
| "Eb"[GE][BG] [BG][AF] | [G2E2] "d.C."z2 :|
%%sep 10 10 300
P: In C:
M: 23/4
L: 1/8
K: C
"A"|: "C"[EC][GE] [GE][FD] | [E2C2] z2 \
| [EC][GE] [GE][EC] [AF][GE] \
| "G7"[G2E2] [FD][EC] | [D2B,2] z2 \
| "F"[AF][AF] [AF][cA] [BG][AF] \
| "C"[A2F2] [GE][FD] | [E2C2]  z2 |
| "G7"[GE][GE] [G2E2] [F2D2] | "C"[E2C2] z2 "fine"z2 :| \
"B"|: "G7"[DB,][FD] [FD][EC] | [D2B,2] z2 \
| [DB,][FD] [FD][DB,] [GE][FD] \
| "C"[EC][GE] [GE][FD] | [E2C2] "d.C."z2 :|
P: In F:
M: 23/4
L: 1/8
K: F
"A"|: "F"[AF][cA] [cA][BG] | [A2F2] z2 \
| [AF][cA] [cA][AF] [dB][cA] \
| "C7"[c2A2] [BG][AF] | [G2E2] z2 \
| "Bb"[dB][dB] [dB][fd] [ec][dB] \
| "F"[d2B2] [cA][BG] | [A2F2]  z2 |
| "C7"[cA][cA] [c2A2] [B2G2] | "F"[A2F2] z2 "fine"z2 :| \
"B"|: "C7"[GE][BG] [BG][AF] | [G2E2] z2 \
| [GE][BG] [BG][GE] [cA][BG] \
| "F"[AF][cA] [cA][BG] | [A2F2] "d.C."z2 :|
